portfolio/.vuepress/public/upload/logo.svg

<svg fill="none" height="125" viewBox="0 0 125 125" width="125" xmlns="http://www.w3.org/2000/svg"><g clip-rule="evenodd" fill="#000" fill-rule="evenodd"><path d="m87.7052 5.27683-15.9163 8.61357c-4.1922 2.2687-9.2132 2.4099-13.5262.3802l-10.6531-5.01323c-2.4272-1.14217-5.2373-1.14217-7.6644 0l-11.0309 5.19103c-4.0452 1.9036-8.7287 1.9036-12.7739 0l-16.1404-7.59553 2.55478-5.42891 16.14042 7.5955c2.4271 1.14214 5.2372 1.14214 7.6644 0l11.0308-5.191c4.0452-1.90362 8.7287-1.90362 12.7739 0l10.6531 5.01323c2.5879 1.21781 5.6004 1.13311 8.1158-.22812l15.9163-8.61357z" transform="translate(18.7226 34.3616)"/><path d="m87.7052 5.27683-15.9163 8.61357c-4.1922 2.2687-9.2132 2.4099-13.5262.3802l-10.6531-5.01323c-2.4272-1.14217-5.2373-1.14217-7.6644 0l-11.0309 5.19103c-4.0452 1.9036-8.7287 1.9036-12.7739 0l-16.1404-7.59553 2.55478-5.42891 16.14042 7.5955c2.4271 1.14214 5.2372 1.14214 7.6644 0l11.0308-5.191c4.0452-1.90362 8.7287-1.90362 12.7739 0l10.6531 5.01323c2.5879 1.21781 5.6004 1.13311 8.1158-.22812l15.9163-8.61357z" transform="translate(18.7226 47.3616)"/><path d="m87.7052 5.27683-15.9163 8.61357c-4.1922 2.2687-9.2132 2.4099-13.5262.3802l-10.6531-5.01323c-2.4272-1.14217-5.2373-1.14217-7.6644 0l-11.0309 5.19103c-4.0452 1.9036-8.7287 1.9036-12.7739 0l-16.1404-7.59553 2.55478-5.42891 16.14042 7.5955c2.4271 1.14214 5.2372 1.14214 7.6644 0l11.0308-5.191c4.0452-1.90362 8.7287-1.90362 12.7739 0l10.6531 5.01323c2.5879 1.21781 5.6004 1.13311 8.1158-.22812l15.9163-8.61357z" transform="translate(18.7226 60.3616)"/><path d="m87.7052 5.27683-15.9163 8.61357c-4.1922 2.2687-9.2132 2.4099-13.5262.3802l-10.6531-5.01323c-2.4272-1.14217-5.2373-1.14217-7.6644 0l-11.0309 5.19103c-4.0452 1.9036-8.7287 1.9036-12.7739 0l-16.1404-7.59553 2.55478-5.42891 16.14042 7.5955c2.4271 1.14214 5.2372 1.14214 7.6644 0l11.0308-5.191c4.0452-1.90362 8.7287-1.90362 12.7739 0l10.6531 5.01323c2.5879 1.21781 5.6004 1.13311 8.1158-.22812l15.9163-8.61357z" transform="translate(18.7226 73.3616)"/><path d="m119 6h-113v113h113zm-119-6v125h125v-125z"/></g></svg>

<svg width="125" height="125" viewBox="0 0 125 125" fill="none" xmlns="http://www.w3.org/2000/svg">
<path fill-rule="evenodd" clip-rule="evenodd" d="M87.7052 5.27683L71.7889 13.8904C67.5967 16.1591 62.5757 16.3003 58.2627 14.2706L47.6096 9.25737C45.1824 8.1152 42.3723 8.1152 39.9452 9.25737L28.9143 14.4484C24.8691 16.352 20.1856 16.352 16.1404 14.4484L0 6.85287L2.55478 1.42396L18.6952 9.01946C21.1223 10.1616 23.9324 10.1616 26.3596 9.01946L37.3904 3.82846C41.4356 1.92484 46.1191 1.92484 50.1643 3.82846L60.8174 8.84169C63.4053 10.0595 66.4178 9.9748 68.9332 8.61357L84.8495 0L87.7052 5.27683Z" transform="translate(18.7226 34.3616)" fill="black"/>
<path fill-rule="evenodd" clip-rule="evenodd" d="M87.7052 5.27683L71.7889 13.8904C67.5967 16.1591 62.5757 16.3003 58.2627 14.2706L47.6096 9.25737C45.1824 8.1152 42.3723 8.1152 39.9452 9.25737L28.9143 14.4484C24.8691 16.352 20.1856 16.352 16.1404 14.4484L0 6.85287L2.55478 1.42396L18.6952 9.01946C21.1223 10.1616 23.9324 10.1616 26.3596 9.01946L37.3904 3.82846C41.4356 1.92484 46.1191 1.92484 50.1643 3.82846L60.8174 8.84169C63.4053 10.0595 66.4178 9.9748 68.9332 8.61357L84.8495 0L87.7052 5.27683Z" transform="translate(18.7226 47.3616)" fill="black"/>
<path fill-rule="evenodd" clip-rule="evenodd" d="M87.7052 5.27683L71.7889 13.8904C67.5967 16.1591 62.5757 16.3003 58.2627 14.2706L47.6096 9.25737C45.1824 8.1152 42.3723 8.1152 39.9452 9.25737L28.9143 14.4484C24.8691 16.352 20.1856 16.352 16.1404 14.4484L0 6.85287L2.55478 1.42396L18.6952 9.01946C21.1223 10.1616 23.9324 10.1616 26.3596 9.01946L37.3904 3.82846C41.4356 1.92484 46.1191 1.92484 50.1643 3.82846L60.8174 8.84169C63.4053 10.0595 66.4178 9.9748 68.9332 8.61357L84.8495 0L87.7052 5.27683Z" transform="translate(18.7226 60.3616)" fill="black"/>
<path fill-rule="evenodd" clip-rule="evenodd" d="M87.7052 5.27683L71.7889 13.8904C67.5967 16.1591 62.5757 16.3003 58.2627 14.2706L47.6096 9.25737C45.1824 8.1152 42.3723 8.1152 39.9452 9.25737L28.9143 14.4484C24.8691 16.352 20.1856 16.352 16.1404 14.4484L0 6.85287L2.55478 1.42396L18.6952 9.01946C21.1223 10.1616 23.9324 10.1616 26.3596 9.01946L37.3904 3.82846C41.4356 1.92484 46.1191 1.92484 50.1643 3.82846L60.8174 8.84169C63.4053 10.0595 66.4178 9.9748 68.9332 8.61357L84.8495 0L87.7052 5.27683Z" transform="translate(18.7226 73.3616)" fill="black"/>
<path fill-rule="evenodd" clip-rule="evenodd" d="M119 6H6V119H119V6ZM0 0V125H125V0H0Z" fill="black"/>
</svg>
